src/4-icons/call.svg

<svg width="260" height="260" viewBox="0 0 260 260" fill="none" xmlns="http://www.w3.org/2000/svg">
<path d="M6.94488 230.47C9.24617 233.824 11.9528 237.177 14.9813 240.205C19.5854 244.729 25.7211 248.649 32.5461 252.081C39.3301 255.435 46.6788 258.141 53.5843 259.474C55.6426 259.878 57.7026 260 59.8824 260C63.9203 260 68.321 259.475 73.0056 258.545C87.0578 255.798 104.056 249.577 118.877 241.376C140.964 229.055 171.652 205.907 188.934 188.577C206.135 171.206 229.153 140.464 241.467 118.526C246.918 108.75 251.481 97.9628 254.751 87.7434C257.981 77.483 260 67.9486 260 59.91C260 57.6882 259.839 55.5468 259.435 53.4464C258.063 46.5788 255.358 39.3072 251.965 32.5611C248.572 25.815 244.658 19.6749 240.134 15.1491C236.096 11.1094 231.493 7.59507 227.011 4.9282C224.749 3.59476 222.53 2.46331 220.307 1.57487C218.045 0.725891 215.865 0.0394508 213.039 0C211.343 0 210.01 0.323493 208.719 0.686441C206.498 1.33343 204.438 2.30235 202.258 3.47483C195.837 7.03014 188.449 12.7663 181.745 19.4319C176.657 24.5211 172.135 30.0568 168.702 35.228C166.966 37.8128 165.552 40.2777 164.422 42.7016C163.857 43.9135 163.371 45.1255 163.008 46.4179C162.646 47.7103 162.362 49.0437 162.322 50.7401C162.362 53.5269 163.049 55.7488 163.898 58.0117C165.19 61.365 167.089 64.6773 169.429 68.0701C171.731 71.4234 174.477 74.7751 177.505 77.805C183.523 83.8236 189.942 90.2477 193.173 93.4796C193.092 94.57 192.769 96.3879 192.163 98.4488C191.395 100.994 190.266 103.942 188.811 106.891C187.923 108.668 186.267 111.415 184.087 114.567C177.505 124.06 166.401 137.352 156.226 147.491C149.442 154.278 140.801 161.993 132.483 168.78C124.205 175.567 116.088 181.545 110.839 184.657C106.519 187.283 102.157 189.383 98.6037 190.797C96.8277 191.483 95.252 192.009 94.0012 192.332C93.7188 192.413 93.4349 192.454 93.1936 192.534C89.8418 189.181 83.7455 183.082 78.0104 177.346C74.0135 173.386 69.5718 169.831 65.291 167.044C63.1506 165.671 61.0118 164.499 58.9108 163.53C56.7704 162.601 54.7515 161.875 52.0464 161.671L51.2782 161.632C49.5826 161.632 48.2498 161.955 46.999 162.318C44.7781 162.965 42.8002 163.934 40.6598 165.107C34.3206 168.662 27.0114 174.359 20.2684 181.064C15.0585 186.276 10.3755 191.932 6.78242 197.142C5.0048 199.768 3.47165 202.272 2.30129 204.696C1.6956 205.908 1.21137 207.12 0.807582 208.371C0.403792 209.664 0.0804426 210.997 0 212.654V212.615V213.058C0.04101 215.847 0.686128 218.027 1.53472 220.29C2.7871 223.724 4.64359 227.077 6.94646 230.47H6.94488ZM22.9766 202.394C25.4798 199.162 28.5082 195.728 31.6581 192.577C36.0604 188.214 40.9453 184.174 45.0226 181.468C47.0416 180.095 48.8981 179.044 50.1915 178.438C50.6757 178.195 51.0385 178.073 51.3634 177.953C51.7672 178.075 52.3729 178.318 53.059 178.681C56.6127 180.377 62.3462 184.497 66.627 188.78C73.6523 195.809 81.3259 203.486 83.7076 205.869C85.2014 207.363 86.8575 208.05 88.1888 208.454C89.5626 208.818 90.733 208.897 91.8229 208.938C94.0027 208.938 95.9412 208.573 98.0406 208.05C104.178 206.434 111.527 203.121 119.159 198.556C125.659 194.638 133.978 188.457 142.7 181.307C151.382 174.196 160.346 166.197 167.655 158.925C174.963 151.614 182.474 143.129 188.854 135.171C192.045 131.171 194.95 127.335 197.373 123.819C199.835 120.264 201.815 117.073 203.308 114.164C205.167 110.407 206.66 106.651 207.711 103.096C208.761 99.5013 209.406 96.2285 209.406 92.9162C209.406 91.5417 209.285 90.1688 208.881 88.594C208.477 87.0585 207.709 85.2407 206.015 83.5048C203.673 81.1614 196.001 73.4859 188.975 66.4573C185.988 63.4685 183.08 59.7112 181.143 56.4794C180.174 54.8635 179.406 53.3691 179.002 52.2376C178.8 51.6711 178.638 51.2277 178.598 50.9863C178.759 50.4608 179.204 49.2899 180.012 47.917C182.434 43.3928 187.603 36.6056 193.256 30.95C197.537 26.6277 202.463 22.629 206.581 19.9211C208.64 18.5482 210.498 17.4972 211.831 16.8913C212.477 16.6088 212.962 16.4068 213.244 16.3263C213.608 16.4068 214.334 16.6498 215.182 17.0128C218.777 18.5482 224.591 22.4665 228.79 26.7082C231.334 29.2126 234.766 34.2623 237.552 39.9179C240.378 45.5326 242.64 51.8353 243.609 56.724C243.77 57.4515 243.891 58.6224 243.852 60.0363C243.891 65.247 242.276 73.8125 239.329 82.9825C236.422 92.1524 232.222 102.091 227.337 110.776C216.152 130.854 193.136 161.597 177.469 177.311C161.884 193.066 131.194 216.214 111.046 227.365C102.284 232.252 92.2693 236.454 82.9821 239.403C78.3385 240.858 73.8968 242.029 69.9393 242.796C65.9819 243.563 62.4692 243.928 59.8856 243.928C58.5118 243.928 57.3824 243.806 56.6553 243.685H56.6158C51.6899 242.755 45.3901 240.492 39.6961 237.665C34.043 234.876 28.9152 231.403 26.412 228.858C23.423 225.869 20.5965 222.192 18.7005 218.96C17.7321 217.344 17.0049 215.85 16.6012 214.759C16.3993 214.194 16.2384 213.749 16.1974 213.467C16.3582 213.023 16.6816 212.134 17.2478 211.083C18.4182 208.698 20.4782 205.629 22.9814 202.397L22.9766 202.394Z" fill="black"/>
</svg>

<svg width="260" height="260" viewBox="0 0 260 260" fill="none" xmlns="http://www.w3.org/2000/svg"><path d="M6.945 230.47c2.301 3.354 5.008 6.707 8.036 9.735 4.604 4.524 10.74 8.444 17.565 11.876 6.784 3.354 14.133 6.06 21.038 7.393 2.059.404 4.119.526 6.298.526 4.038 0 8.439-.525 13.124-1.455 14.052-2.747 31.05-8.968 45.871-17.169 22.087-12.321 52.775-35.469 70.057-52.799 17.201-17.371 40.219-48.113 52.533-70.051 5.451-9.776 10.014-20.563 13.284-30.783C257.981 77.483 260 67.95 260 59.91c0-2.222-.161-4.363-.565-6.464-1.372-6.867-4.077-14.139-7.47-20.885-3.393-6.746-7.307-12.886-11.831-17.412a68.24 68.24 0 0 0-13.123-10.22c-2.262-1.334-4.481-2.466-6.704-3.354-2.262-.85-4.442-1.536-7.268-1.575-1.696 0-3.029.323-4.32.686-2.221.647-4.281 1.616-6.461 2.789-6.421 3.555-13.809 9.291-20.513 15.957-5.088 5.09-9.61 10.625-13.043 15.796-1.736 2.585-3.15 5.05-4.28 7.474-.565 1.212-1.051 2.424-1.414 3.716-.362 1.292-.646 2.626-.686 4.322.04 2.787.727 5.009 1.576 7.272 1.292 3.353 3.191 6.665 5.531 10.058a69.823 69.823 0 0 0 8.076 9.735c6.018 6.019 12.437 12.443 15.668 15.675-.081 1.09-.404 2.908-1.01 4.969a56.125 56.125 0 0 1-3.352 8.442c-.888 1.777-2.544 4.524-4.724 7.676-6.582 9.493-17.686 22.785-27.861 32.924-6.784 6.787-15.425 14.502-23.743 21.289-8.278 6.787-16.395 12.765-21.644 15.877-4.32 2.626-8.682 4.726-12.235 6.14-1.776.686-3.352 1.212-4.603 1.535-.282.081-.566.122-.807.202-3.352-3.353-9.448-9.452-15.184-15.188-3.997-3.96-8.438-7.515-12.719-10.302a52.845 52.845 0 0 0-6.38-3.514c-2.14-.929-4.16-1.655-6.865-1.859l-.768-.039c-1.695 0-3.028.323-4.279.686-2.22.647-4.199 1.616-6.34 2.789-6.338 3.555-13.648 9.252-20.39 15.957-5.21 5.212-9.893 10.868-13.487 16.078-1.777 2.626-3.31 5.13-4.48 7.554a26.04 26.04 0 0 0-1.494 3.675c-.404 1.293-.728 2.626-.808 4.283v-.039.443c.041 2.789.686 4.969 1.535 7.232 1.252 3.434 3.109 6.787 5.411 10.18h-.001Zm16.032-28.076c2.503-3.232 5.531-6.666 8.681-9.817 4.402-4.363 9.287-8.403 13.365-11.109 2.019-1.373 3.875-2.424 5.168-3.03.485-.243.847-.365 1.172-.485.404.122 1.01.365 1.696.728 3.554 1.696 9.287 5.816 13.568 10.099l17.08 17.089c1.494 1.494 3.15 2.181 4.482 2.585 1.374.364 2.544.443 3.634.484 2.18 0 4.118-.365 6.218-.888 6.137-1.616 13.486-4.929 21.118-9.494 6.5-3.918 14.819-10.099 23.541-17.249 8.682-7.111 17.646-15.11 24.955-22.382 7.308-7.311 14.819-15.796 21.199-23.754 3.191-4 6.096-7.836 8.519-11.352 2.462-3.555 4.442-6.746 5.935-9.655 1.859-3.757 3.352-7.513 4.403-11.068 1.05-3.595 1.695-6.868 1.695-10.18 0-1.374-.121-2.747-.525-4.322-.404-1.535-1.172-3.353-2.866-5.09a304421.34 304421.34 0 0 0-17.04-17.047c-2.987-2.988-5.895-6.746-7.832-9.978-.969-1.615-1.737-3.11-2.141-4.241-.202-.567-.364-1.01-.404-1.252.161-.525.606-1.696 1.414-3.069 2.422-4.524 7.591-11.311 13.244-16.967 4.281-4.322 9.207-8.321 13.325-11.029 2.059-1.373 3.917-2.424 5.25-3.03.646-.282 1.131-.484 1.413-.565.364.08 1.09.324 1.938.687 3.595 1.535 9.409 5.453 13.608 9.695 2.544 2.505 5.976 7.554 8.762 13.21 2.826 5.615 5.088 11.917 6.057 16.806.161.728.282 1.898.243 3.312.039 5.211-1.576 13.776-4.523 22.947-2.907 9.17-7.107 19.108-11.992 27.793-11.185 20.078-34.201 50.821-49.868 66.535-15.585 15.755-46.275 38.903-66.423 50.054-8.762 4.887-18.777 9.089-28.064 12.038-4.644 1.455-9.085 2.626-13.043 3.393-3.957.767-7.47 1.132-10.053 1.132-1.374 0-2.504-.122-3.23-.243h-.04c-4.926-.93-11.226-3.193-16.92-6.02-5.653-2.789-10.78-6.262-13.284-8.807-2.989-2.989-5.816-6.666-7.711-9.898-.969-1.616-1.696-3.11-2.1-4.201-.202-.565-.363-1.01-.404-1.292.161-.444.485-1.333 1.05-2.384 1.171-2.385 3.231-5.454 5.734-8.686l-.004-.003Z" fill="#000"/></svg>
